server/frontend/packages/ui/static/icons/tfas.svg

<svg width="48" height="48" viewBox="0 0 48 48" fill="none" xmlns="http://www.w3.org/2000/svg">
<g clip-path="url(#clip0_2428_24941)">
<path d="M36.5757 40.0416L25.4321 47.5462C24.5523 48.146 23.3927 48.146 22.4996 47.5595L11.1027 40.0283C6.66397 37.0958 3.99805 32.1372 3.99805 26.8186V8.58371C3.99805 6.1977 5.61093 4.10495 7.91696 3.49179L18.3407 0.705897C21.8997 -0.240507 25.6454 -0.240507 29.2177 0.705897L39.6415 3.49179C41.9475 4.10495 43.5604 6.1977 43.5604 8.58371V26.8986C43.5604 32.1772 40.9344 37.0958 36.5757 40.0416Z" fill="#EC1C24"/>
<path d="M33.0031 16.0754H14.5416C13.0887 16.0754 11.9023 14.8891 11.9023 13.4361C11.9023 11.9832 13.0887 10.7969 14.5416 10.7969H33.0031C34.4561 10.7969 35.6424 11.9832 35.6424 13.4361C35.6424 14.9024 34.4694 16.0754 33.0031 16.0754ZM23.779 21.3539C23.779 19.901 22.5927 18.7147 21.1398 18.7147H14.5416C13.0887 18.7147 11.9023 19.901 11.9023 21.3539C11.9023 22.8069 13.0887 23.9932 14.5416 23.9932H21.1398C22.5927 23.9932 23.779 22.8069 23.779 21.3539ZM17.1809 29.2717C17.1809 27.8188 15.9945 26.6325 14.5416 26.6325C13.0887 26.6325 11.9023 27.8188 11.9023 29.2717C11.9023 30.7247 13.0887 31.911 14.5416 31.911C16.0079 31.911 17.1809 30.7247 17.1809 29.2717Z" fill="white"/>
</g>
<defs>
<clipPath id="clip0_2428_24941">
<rect width="39.5623" height="48" fill="white" transform="translate(4)"/>
</clipPath>
</defs>
</svg>

<svg width="48" height="48" fill="none" xmlns="http://www.w3.org/2000/svg"><g clip-path="url(#prefix__clip0_2428_24941)"><path d="M36.576 40.042l-11.144 7.504c-.88.6-2.04.6-2.932.014l-11.397-7.532a15.826 15.826 0 01-7.105-13.21V8.585a5.277 5.277 0 013.919-5.092L18.341.706a21.19 21.19 0 0110.877 0l10.424 2.786a5.277 5.277 0 013.918 5.092v18.315a15.863 15.863 0 01-6.984 13.143z" fill="#EC1C24"/><path d="M33.003 16.075H14.542a2.645 2.645 0 01-2.64-2.639 2.645 2.645 0 012.64-2.64h18.461a2.645 2.645 0 012.64 2.64 2.628 2.628 0 01-2.64 2.64zm-9.224 5.279a2.645 2.645 0 00-2.64-2.64h-6.597a2.645 2.645 0 00-2.64 2.64 2.645 2.645 0 002.64 2.64h6.598a2.645 2.645 0 002.639-2.64zm-6.598 7.918a2.645 2.645 0 00-2.64-2.64 2.645 2.645 0 00-2.639 2.64 2.645 2.645 0 002.64 2.639 2.637 2.637 0 002.639-2.64z" fill="#fff"/></g><defs><clipPath id="prefix__clip0_2428_24941"><path fill="#fff" transform="translate(4)" d="M0 0h39.562v48H0z"/></clipPath></defs></svg>
